X:1
T:Title
%%score { ( 1 3 ) | 2 }
L:1/8
M:4/4
K:C
V:1 treble nm="Grand Piano"
V:3 treble 
V:2 bass 
V:1
 z4 z2[Q:1/4=108] G2 | c2 EF G2 ^G2 | A2 CE F2 A2 | [B,G]2 [DF]2 [CE]2 [B,D]2 |[M:3/4] E6 | %5
[M:1/4] G2 |[M:4/4] c2 EF G2 ^G2 | A2 DE F2 [FA]2 | [EG]2 [Gc]2 [^Fc]2 [=Fd]2 |[M:3/4] [Ec]6 | %10
[M:1/4] z2 |[M:4/4] [EGe]4 z4 | [EGc]4 z4 | [CFA]4 [^CGA]4 | [DFA]6 c2 | %15
 [Fc]2 [B,FB]2 [Fd]2 [B,FB]2 | [FA]6 z2 | [EA]2 [CEG]2 [Ec]2 [CE]2 | G6 z2 | [EGe]4 z4 | %20
 [EGc]4 z4 | [CFA]4 [FAd]2 [GA^ce]2 | [FAdf]6 [DFA]2 | [C_Ec]2 [CEB]2 [CEc]2 [CEA]2 | %24
 [CEG]2 [C_EA]2 [DGB]2 [CGc]2 | z4 [DFGB]4 |[M:3/4] [CEGc]6 |] %27
V:2
 z4 z2 G,2 | C2 E,F, G,2 [E,B,D]2 | [F,A,C]2 [F,A,][E,A,C] [D,A,D]2 [D,F,D]2 | %3
 [G,,G,]2 [G,,G,]2 [G,,G,]2 [G,,G,]2 |[M:3/4] [C,G,C]6 |[M:1/4] G,2 |[M:4/4] C2 E,F, G,2 [E,B,D]2 | %7
 [F,A,C]2 [F,A,][E,A,^C] [D,A,D]2 [D,=C]2 | [F,C]2 [E,C]2 [D,D]2 [G,B,]2 |[M:3/4] [C,G,C]6 | %10
[M:1/4] G2 |[M:4/4] C,2 E,2 G,,2 [E,G,C]2 | C,2 E,2 E,2 C,2 | F,,2 F,2 E,,2 E,2 | %14
 D,,2 F,,A,, D,2 F2 | D,2 G,2 G,,2 G,2 | D,2 G,G, G,2 G,2 | C,2 G,2 C,2 G,2 | G,,2 A,2 G,2 B,2 | %19
 C,2 E,2 G,,2 [E,G,C]2 | C,2 E,2 E,2 [C,C]2 | [F,,F,]2 [A,,A,]2 [F,,F,]2 [E,,E,]2 | %22
 [D,,D,]2 F,,A,, D,2 [D,,D,]2 | [^F,,^F,]2 [F,,F,]2 [F,,F,]2 [F,,F,]2 | %24
 [G,,G,]2 [^F,,^F,]2 [=F,,=F,]2 [E,,E,]2 | [D,,D,]2 [D,,D,]2 [G,,G,]2 G,,2 | %26
[M:3/4] C,2 G,,2 C,,2 |] %27
V:3
 x8 | x8 | x8 | x8 |[M:3/4] x6 |[M:1/4] x2 |[M:4/4] x8 | x8 | x8 |[M:3/4] x6 |[M:1/4] x2 | %11
[M:4/4] z2 [G,C]2 [EGB]2 [EGd]2 | z2 [G,C]2 [CEG]2 [CE^G]2 | x8 | x8 | x8 | z2 B,B, B,2 [B,FA]2 | %17
 x8 | [B,D]2 [B,F]2 [B,E]2 [DG]2 | z2 [G,C]2 [EGB]2 [EGd]2 | z2 [G,C]2 [CEG]2 [E^G]2 | x8 | x8 | %23
 x8 | x8 | [DFAd]4 z2 G,2 |[M:3/4] x6 |] %27

